public/personal/triangle.svg

<svg fill="none" height="90" viewBox="0 0 91 90" width="91" xmlns="http://www.w3.org/2000/svg" xmlns:xlink="http://www.w3.org/1999/xlink"><linearGradient id="a" gradientUnits="userSpaceOnUse" x1="15.4259" x2="80.7593" y1="11.5185" y2="80.4815"><stop offset="0" stop-color="#63fefe"/><stop offset="1" stop-color="#1f6d6d"/></linearGradient><radialGradient id="b" cx="0" cy="0" gradientTransform="matrix(29.55555495 30.07406126 -30.07406126 29.55555495 44.4631 49.8891)" gradientUnits="userSpaceOnUse" r="1"><stop offset="0" stop-color="#50d5d5"/><stop offset="1" stop-color="#0e3c3c"/></radialGradient><linearGradient id="c" gradientUnits="userSpaceOnUse" x1="31.5001" x2="49.6482" y1="21.889" y2="73.2224"><stop offset="0" stop-color="#1d6f6f"/><stop offset="1" stop-color="#64e5e5"/></linearGradient><linearGradient id="d" gradientUnits="userSpaceOnUse" x1="27.1162" x2="66.9479" y1="27.0742" y2="76.0978"><stop offset="0" stop-color="#fff" stop-opacity=".44"/><stop offset="1" stop-color="#fff" stop-opacity=".12"/></linearGradient><path d="m41.624 17.7135c1.7227-2.9838 6.0293-2.9838 7.752 0l29.0701 50.3509c1.7227 2.9837-.4306 6.7134-3.876 6.7134h-58.1402c-3.4454 0-5.5987-3.7297-3.876-6.7134z" fill="url(#a)"/><path d="m44.5824 32.2208c.4079-.7065 1.4275-.7065 1.8354 0l18.4347 31.9299c.4079.7064-.1019 1.5895-.9177 1.5895h-36.8694c-.8158 0-1.3256-.8831-.9177-1.5896z" fill="url(#b)" stroke="url(#c)" stroke-width="3.55704"/><path d="m48.1377 31.2278c-1.1723-2.0304-4.1029-2.0304-5.2752 0l-18.4347 31.9299c-1.1723 2.0304.2931 4.5684 2.6376 4.5684h36.8694c2.3445 0 3.8098-2.538 2.6376-4.5684z" stroke="url(#d)" stroke-width=".414815"/></svg>

<svg width="91" height="90" viewBox="0 0 91 90" fill="none" xmlns="http://www.w3.org/2000/svg">
<path d="M41.624 17.7135C43.3467 14.7297 47.6533 14.7297 49.376 17.7135L78.4461 68.0644C80.1688 71.0481 78.0155 74.7778 74.5701 74.7778H16.4299C12.9845 74.7778 10.8312 71.0481 12.5539 68.0644L41.624 17.7135Z" fill="url(#paint0_linear_539_14178)"/>
<path d="M44.5824 32.2208C44.9903 31.5143 46.0099 31.5143 46.4178 32.2208L64.8525 64.1507C65.2604 64.8571 64.7506 65.7402 63.9348 65.7402H27.0654C26.2496 65.7402 25.7398 64.8571 26.1477 64.1506L44.5824 32.2208Z" fill="url(#paint1_radial_539_14178)" stroke="url(#paint2_linear_539_14178)" stroke-width="3.55704"/>
<path d="M48.1377 31.2278C46.9654 29.1974 44.0348 29.1974 42.8625 31.2278L24.4278 63.1577C23.2555 65.1881 24.7209 67.7261 27.0654 67.7261H63.9348C66.2793 67.7261 67.7446 65.1881 66.5724 63.1577L48.1377 31.2278Z" stroke="url(#paint3_linear_539_14178)" stroke-width="0.414815"/>
<defs>
<linearGradient id="paint0_linear_539_14178" x1="15.4259" y1="11.5185" x2="80.7593" y2="80.4815" gradientUnits="userSpaceOnUse">
<stop stop-color="#63FEFE"/>
<stop offset="1" stop-color="#1F6D6D"/>
</linearGradient>
<radialGradient id="paint1_radial_539_14178" cx="0" cy="0" r="1" gradientUnits="userSpaceOnUse" gradientTransform="translate(44.4631 49.8891) rotate(45.4982) scale(42.1661)">
<stop stop-color="#50D5D5"/>
<stop offset="1" stop-color="#0E3C3C"/>
</radialGradient>
<linearGradient id="paint2_linear_539_14178" x1="31.5001" y1="21.889" x2="49.6482" y2="73.2224" gradientUnits="userSpaceOnUse">
<stop stop-color="#1D6F6F"/>
<stop offset="1" stop-color="#64E5E5"/>
</linearGradient>
<linearGradient id="paint3_linear_539_14178" x1="27.1162" y1="27.0742" x2="66.9479" y2="76.0978" gradientUnits="userSpaceOnUse">
<stop stop-color="white" stop-opacity="0.44"/>
<stop offset="1" stop-color="white" stop-opacity="0.12"/>
</linearGradient>
</defs>
</svg>
